!!!!SEGMENT: 006-1-KI-001.krn
!!!COM: Chopin, Fryderyk
!!!OTL: Mazurka No. 1.
!!!OPS: Op. 6
!!!PTL: Quatre Mazurkas
!!!PPR: Kistner
!!!PPP: Leipzig
!!!NIFC-rismID: 300605318
!!!NIFC-shelfmark: PL-Wbfc 2435/n
!!!OMD: M.M. [quarter] = 132.
**kern	**kern	**dynam
*part1	*part1	*part1
*staff2	*staff1	*
*>[A,A,B,B,C]	*[A,A,B,B,C]	*
*clefF4	*clefG2	*
*k[f#c#g#]	*k[f#c#g#]	*
*f#:	*f#:	*
*M3/4	*M3/4	*
*MM132	*MM132	*
*>A	*>A	*
4r	([4f#^>	p
=1	=1	=1
*ped	*	*
4CC#	(<12f#L]	.
.	12g#	.
.	12f#J)	.
4B 4C#	8e#XL	<
*Xped	*	*
.	8f#	.
4B 4E#X 4C#	8.g#	[
.	16dnJk)	.
=2	=2	=2
*	*^	*
*ped	*	*	*
4FF#	8c#'<L	2ryy	.
.	16r	.	.
.	(16f#Jk	.	.
*Xped	*	*	*
4c# 4F#	4a`<)	.	<
4c# 4F#	4a^>	[4f#	.
=3	=3	=3	=3
*ped	*	*	*
4EE	(>12aL	4f#]	<
.	12b	.	.
.	12aJ)	.	.
4B 4E	8g#L	4e	.
*Xped	*	*	*
.	8a	.	.
[4E	8.b	[4d	.
.	16f#Jk	.	[[
=4	=4	=4	=4
*ped	*	*	*
4E] 4AA	8e^<L	4d]	.
.	16r	.	<
.	16aJk	.	.
*Xped	*	*	*
4A	4cc#'> 4c#	4c#	[[
4e 4A	4cc#^>	4ryy	.
*	*v	*v	*
=5	=5	=5
*^	*	*
!LO:TX:b:i:B:t=legato.	!	!	!
2f# 2d#X	4A	(>12cc#L	.
.	.	12ddX	.
.	.	12cc#J)	>
.	2G#	8b#XL	.
.	.	16r	.
.	.	(16g#Jk	.
4e#X 4c#	.	[4bn^>/)	.
!!LO:LB:g=original
=6	=6	=6	=6
2en 2c#	4Gn	12bL]	.
.	.	12cc#	.
.	.	12bJ	.
.	2F#	8a#XL	.
.	.	16r	.
.	.	16f#Jk	.
4d#X 4cn	.	[4an^>	.
=7	=7	=7	=7
2dn 2B	4Fn	12aL]	.
.	.	12b	.
.	.	12aJ	.
.	2E	8g#XL	.
.	.	16r	.
.	.	(16eJk	.
4c#X 4B-X	.	[4gn^>)	.
=8	=8	=8	=8
2cn 2A	4E-X	(<12gnXL]	.
.	.	12a	.
.	.	12gJ)	.
.	2D	(8f#XL	.
.	.	8dJ	.
4Bn 4G#X	.	4f#)	.
*v	*v	*	*
=9	=9	=9
*ped	*	*
!	!LO:TX:b:a:i:B:t=rubato.	!
4C# 4CC#	(<12f#L	.
.	12g#	.
.	12f#J)	.
4B 4G# 4C#	8e#XL	<
.	8f#	.
*Xped	*	*
4B 4E#X 4C#	8.g#	.
.	16dnJk	[
=10	=10	=10
*	*^	*
4FF#	8c#L	2ryy	.
.	16r	.	.
.	(<16f#Jk	.	<
4c# 4F#	4a)	.	.
4c# 4F#	4a^	[4f#	.
=11	=11	=11	=11
4EE	12aL	4f#]	<
.	12b	.	[
.	12aJ	.	.
4B 4E	8g#L	4e	.
.	8a	.	.
[>4E^>	8b	[4d	>
.	(>8f#J	.	]
!!LO:LB:g=original
=12	=12	=12	=12
4E] 4AA	8eL	(4d]	<
.	8aJ	.	.
4A	4cc#`>\) 4c#`>\)	4ryy	[
[4A	4cc#\ 4e\	4ryy	.
=13	=13	=13	=13
!	!LO:TX:b:i:B:t=ritenuto.	!	!
4A] 4D	(8eeL	4fn	p >
.	16ddL	.	]
.	16cc#JJ	.	.
4A 4D	4b	4f	[
[4A 4AA	4cc#)	4e	<
.	.	.	[
=14	=14	=14	=14
4A] 4D	(8eeL	4fn	.
.	16ddL	.	.
.	16cc#JJ	.	.
4A 4D	4b	4f	<
[4A 4AA	4cc#)	4e	[[
=15	=15	=15	=15
*^	*	*	*
4A]	2D	(8eeL	2f#X	.
.	.	16ddL	.	.
.	.	16cc#JJ	.	.
2G#	.	4b	.	.
.	4c# 4C#	4cc#)	4e#X	<
.	.	.	.	[
=16	=16	=16	=16	=16
(>12dL	2F#	(>12bL	2f#	pp
12c#	.	12a	.	[
12BJ)	.	12g#J)	.	.
4A	.	4f#	.	.
*v	*v	*	*	*
*	*v	*v	*
=:|!|:	=:|!|:	=:|!|:
*>B	*>B	*
4r	4cc#	.
=17	=17	=17
*^	*	*
*ped	*	*	*
4C#`< 4CC#`<	4ryy	4ccc#`> 4cc#`>	ff
8G#L	(<2G#	(8cc#L	.
8c#	.	8g#	<
*Xped	*	*	*
8d#X	.	8b#X	.
8f#J	.	8ddnJ	[
=18	=18	=18	=18
8.e#XL	2G#)	8.cc#L	.
16d#XJk	.	16b#X'>Jk	.
4dn	.	4bn'>	.
4ryy	4B	4b'>)	.
!!LO:LB:g=original
=19	=19	=19	=19
*ped	*	*	*
4C#'< 4CC#'<	4ryy	4ccc# 4cc#	ffz
8G#L	(<2G#	8cc#/L	<
8c#	.	8g#	.
8d#X	.	8b#X	.
*Xped	*	*	*
8f#J	.	8ddnJ	[
=20	=20	=20	=20
*	*	*^	*
8e#XL	2G#)	4ryy	8cc#/L	.
8d#XJ	.	.	8b#XJ	.
4dn	.	4.gg#^	2bn	fz
4ryy	4B	.	.	.
.	.	8ff#	.	.
*	*	*v	*v	*
=21	=21	=21	=21
4C# 4CC#	4ryy	4ccc#'> 4ee#X'> 4cc#'>	ffz
8G#L	(<2G#	(8cc#L	.
!	!	!	!LO:HP:a
8c#	.	8g#	<
8d#X	.	8b#X	.
8f#J	.	8ddnJ	[
=22	=22	=22	=22
8.e#XL	2G#)	8.cc#'>L	.
16d#XJk	.	16b#X'>Jk	.
4dn	.	4bn'>	.
4ryy	4B	4b'>)	.
=23	=23	=23	=23
4C# 4CC#	4ryy	4ccc# 4cc#	ffz
(>8G#L	2G#	(>8cc#L>	<
8c#	.	8g#	.
8d#X	.	8b#X	.
8f#J	.	8ddnJ	[
=24	=24	=24	=24
!	!	!LO:TX:b:i:B:t=rallent.	!
(20%3e#X	2G#)	20%3cc#'</	.
20%3d#X	.	20%3b#X'</	.
20%3dn	.	20%3bn'</	.
20%3c#	.	20%3.a'<	>
.	4r	.	.
20%3B	.	.	.
.	.	40%3g#'<)	]
*v	*v	*	*
!!LO:LB:g=original
=25	=25	=25
!	!LO:TX:a:Bi:t=Tempo 1o.	!
4A	(12f#L	f
.	12g#	.
.	12f#J)	.
4G#)	8e#XL	.
.	8f#	.
4B 4E#X 4C#	8.g#	>
.	(16dnJk	]
=26	=26	=26
*	*^	*
4FF#	8c#L)	2ryy	.
.	16r	.	.
.	(<16f#Jk	.	<
4c# 4F#	4a^>)	.	.
4c# 4F#	4a	[4f#	.
=27	=27	=27	=27
4EE	(>12aL	4f#]	.
.	12b	.	.
.	12aJ)	.	.
4B 4E	8g#L	4e	.
.	8a	.	.
[4E^>	8.b	[4d	.
.	16f#Jk	.	.
=28	=28	=28	=28
4E] 4AA	8eL	4d]	.
.	16r	.	.
.	16aJk	.	.
4A	4cc# 4c#	4c#	.
4e 4A	[4cc#	4ryy	.
*	*v	*v	*
=29	=29	=29
*^	*	*
!	!LO:TX:b:i:B:t=legato.	!	!
2f# 2d#X	4A	(>12cc#L]	.
.	.	12ddX	.
.	.	12cc#J))	.
!	!	!LO:TX:b:i:B:t=dimin.	!
.	2G#	8b#XL	.
.	.	16r	.
.	.	16g#Jk	.
4e#X 4c#	.	[4bn	.
=30	=30	=30	=30
*	*	*Xtuplet	*
2en 2c#	4Gn	(>12bL]	.
.	.	12cc#	.
.	.	12bJ)	.
*	*	*tuplet	*
.	2F#	8a#XL	.
.	.	16r	.
.	.	(<16f#Jk	.
4d#X 4cn	.	4an^>)	.
!!LO:LB:g=original
=31	=31	=31	=31
2dn 2B	4Fn	(<12aL	.
.	.	12b	.
.	.	12aJ	.
.	2E	8g#XL)	.
.	.	16r	.
.	.	(16eJk	.
4c#X 4B-X	.	[4gn^>)	.
=32	=32	=32	=32
2cn 2A	4E-X	(<12gnXL]	.
.	.	12a	.
.	.	12gJ)	.
.	2D	(8f#L	<
.	.	8dJ	.
4Bn 4G#X	.	4f#)	[
*v	*v	*	*
=33	=33	=33
*ped	*	*
4C# 4CC#	(<12f#L	.
.	12g#	.
.	12f#J)	.
4B 4G# 4C#	(8e#XL	.
*Xped	*	*
.	8f#	.
4B 4E#X 4C#	8.g#	.
.	16dnJk	.
=34	=34	=34
*	*^	*
*ped	*	*	*
4FF#	8c#L)	2ryy	.
.	16r	.	.
.	(16f#Jk	.	.
*Xped	*	*	*
4c# 4F#	4a))	.	.
4c# 4F#	4a^>	[4f#	.
=35	=35	=35	=35
*ped	*	*	*
4EE	(>12aL	4f#]	<
.	12b	.	.
.	12aJ)	.	.
4B 4E	8g#L	4e	.
*Xped	*	*	*
.	8a	.	.
[>4E^>	8.b	4d	.
.	16f#Jk	.	.
=36	=36	=36	=36
(4E\] 4AA\	8eL	(<4d	<
.	(8aJ	.	[
4A)	4cc#)	4c#)	>
[4A	4cc#	4e	]]
!!LO:PB:g=original
=37	=37	=37	=37
4A] 4D	(8eeL	4fn	p >
.	16ddL	.	.
.	16cc#JJ	.	]
4A 4D	4b	4f	<
[4A 4AA	4cc#)	4e	[[
=38	=38	=38	=38
4A] 4D	((<8eeL	4fn	.
.	16ddL	.	[
.	16cc#JJ	.	.
4A 4D	4b)	4f	.
[4A 4AA	4cc#)	4e	<[[
=39	=39	=39	=39
*^	*	*	*
4A]	2D	(<8eeL	2f#X	.
.	.	16ddL	.	.
.	.	16cc#JJ	.	.
2G#	.	4b)	.	.
.	4c# 4C#	4cc#	4e#X	<
=40	=40	=40	=40	=40
(>12dL	2F#	(<(>12bL	2f#	[ pp
12c#	.	12a	.	.
12BJ)	.	12g#J)	.	.
4A	.	4f#)	.	.
*v	*v	*	*	*
*	*v	*v	*
=:|!	=:|!	=:|!
*>C	*>C	*
.	8qgg#/	.
4r	4ccc#^< 4ff#^<	f
=41	=41	=41
.	8qgg#/	.
*^	*	*
*ped	*	*	*
!	!	!LO:TX:b:i:B:t=scherz.	!
!!mixed beam:problem	!!	!!	!!
8FF#'>/L	4ryy	8dddL 8ff#	.
.	.	8qgg#/	.
8F#'>\J	.	8ccc#J 8ff#	.
.	.	8qgg#/	.
*clefG2	*	*	*
4r	[>2f# 2d	4bb 4ff#	.
.	.	8qgg#/	.
4b^>	.	4ddd 4ff#	.
*Xped	*	*	*
=42	=42	=42	=42
.	.	8qgg#/	.
8aL 8c#	2f#]	8ccc#L 8ff#	.
.	.	8qgg#/	.
8g#J 8B	.	8dddJ 8ff#	.
.	.	8qgg#/	.
4a'< 4c#'<	.	4ccc# 4ff#	.
.	.	8qgg#/	.
*clefF4	*	*	*
*ped	*	*	*
4F#^>	4ryy	4fff# 4ff#	fz
!!LO:LB:g=original
=43	=43	=43	=43
.	.	8qgg#/	.
*ped	*	*	*
8FF#'>\L	4ryy	8dddL 8ff#	.
.	.	8qgg#/	.
8F#'>J	.	8ccc#J 8ff#	.
.	.	8qgg#/	.
*clefG2	*	*	*
4ryy	[2f#\ 2d\	4bb 4ff#	.
*Xped	*	*	*
.	.	8qgg#/	.
4b^	.	4ddd 4ff#	.
=44	=44	=44	=44
.	.	8qf# 8qcc#/	.
*	*	*8va	*
8aL 8c#	2f#]	8cccc#	.
*	*	*X8va	*
8g#J 8B	.	8r	.
!	!	!LO:TX:a:i:B:t=loco.	!
4a 4c#	.	2cc#^>	fz
*clefF4	*	*	*
*ped	*	*	*
4C#\	4ryy	.	.
=45	=45	=45	=45
.	.	8qdd/	.
8CC#'>\L	4ryy	8gg#L 8cc#	.
.	.	8qdd/	.
8C#'>J	.	8bbJ 8cc#	.
.	.	8qdd/	.
*clefG2	*	*	*
4ryy	[>2c# 2B	4aa 4cc#	.
*Xped	*	*	*
.	.	8qdd/	.
4g#^>	.	4gg# 4cc#	.
=46	=46	=46	=46
.	.	8qdd/	.
(<8f#L 8A	2c#]	8ff#L 8cc#	.
.	.	8qdd/	.
8e#XJ 8G#)	.	8gg#J 8cc#	.
.	.	8qdd/	.
4f# 4A	.	4ff# 4cc#	.
*clefF4	*	*	*
*ped	*	*	*
4C#^>\	4ryy	4ccc# 4cc#	.
=47	=47	=47	=47
.	.	8qdd/	.
8CC#'>\L	4ryy	8gg#L 8cc#	.
.	.	8qdd/	.
8C#'>J	.	8bbJ 8cc#	.
.	.	8qdd/	.
*clefG2	*	*	*
4ryy	[>2c# 2B	4aa 4cc#	.
.	.	8qdd/	.
4g#^>	.	4gg# 4cc#	.
*Xped	*	*	*
=48	=48	=48	=48
.	.	8qff#/	.
(<8f#L 8A	2c#]	8fff#`>	.
8e#XJ 8G#	.	8r	.
*	*	*clefF4	*
4f# 4A)	.	4FF#^>	fz
*clefF4	*	*	*
*ped	*	*	*
4FF#^>	4ryy	4r	.
*	*	*clefG2	*
!!LO:LB:g=original
=49	=49	=49	=49
.	.	8qgg#/	.
!!mixed beam:problem	!!	!!	!!
8FFF#'</L	4ryy	8dddL 8ff#	.
.	.	8qgg#/	.
8F#'>\J	.	8ccc#J 8ff#	.
.	.	8qgg#/	.
*clefG2	*	*	*
4ryy	[</2f# 2d/	4bb 4ff#	.
.	.	8qgg#/	.
4b^>	.	4ddd 4ff#	.
*Xped	*	*	*
=50	=50	=50	=50
.	.	8qgg#/	.
(<8aL 8c#	2f#]	8ccc#L 8ff#	.
.	.	8qgg#/	.
8g#J 8B	.	8dddJ 8ff#	.
.	.	8qgg#/	.
4a 4c#)	.	4ccc# 4ff#	.
.	.	8qgg#/	.
*clefF4	*	*	*
*ped	*	*	*
4F#^>	4ryy	4fff# 4ff#	fz
=51	=51	=51	=51
.	.	8qgg#/	.
8FF#'>\L	4ryy	8dddL 8ff#	.
.	.	8qgg#/	.
8F#'>J	.	8ccc#J 8ff#	.
.	.	8qgg#/	.
*clefG2	*	*	*
4ryy	[2f# 2d	4bb 4ff#	.
.	.	8qgg#/	.
4b^>	.	4ddd 4ff#	.
*Xped	*	*	*
=52	=52	=52	=52
.	.	8qf# 8qcc#/	.
*	*	*8va	*
(<8aL 8c#	2f#]	8cccc#'>	.
*	*	*X8va	*
8g#J 8B	.	8r	.
!	!	!LO:TX:a:i:B:t=loco.	!
4a 4c#)	.	2cc#^>	fz
*clefF4	*	*	*
*ped	*	*	*
4C#^>\	4ryy	.	.
=53	=53	=53	=53
.	.	8qdd/	.
8CC#'<L	4ryy	8gg#L 8cc#	.
.	.	8qdd/	.
8C#'<J	.	8bbJ 8cc#	.
.	.	8qdd/	.
*clefG2	*	*	*
4ryy	[>2c# 2B	4aa 4cc#	.
.	.	8qdd/	.
4g#^>	.	4gg# 4cc#	.
=54	=54	=54	=54
.	.	8qdd/	.
(<8f#L 8A	(2c#]	8ff#L 8cc#	.
.	.	8qdd/	.
8e#XJ 8G#	.	8gg#J 8cc#	.
.	.	8qdd/	.
4f# 4A)	.	4ff# 4cc#	.
.	.	8qdd/	.
*clefF4	*	*	*
*ped	*	*	*
4C#^>	4ryy	4ccc# 4cc#	fz
!!LO:LB:g=original
=55	=55	=55	=55
.	.	8qdd/	.
8CC#'<L	4ryy	8gg#L 8cc#	.
.	.	8qdd/	.
8C#'<J	.	8bbJ 8cc#	.
.	.	8qdd/	.
*clefG2	*	*	*
4ryy	2c#	4aa 4cc#	<
.	.	8qdd/	.
4g#^>	.	4gg# 4cc#	[
*Xped	*	*	*
*v	*v	*	*
=56	=56	=56
.	8qcc#/)	.
!	!LO:TX:b:i:B:t=ritenuto.	!
(4f# 4d 4G#	8gg#^>L 8b#X^>	.
.	8qcc#/	.
.	8gg#^>J 8b#^>	.
.	8qcc#/	.
4e#X 4c#)	4gg#^> 4bn^>	.
.	8qa/	.
4r	4cc#^>\ 4g#\	.
*clefF4	*	*
=57	=57	=57
*ped	*	*
!	!LO:TX:b:i:B:t=a Tempo.	!
4CC#'<	(12f#L	.
.	12g#	.
.	12f#J)	.
4B 4C#	8e#XL	.
.	8f#	.
4B 4E#X 4C#	8.g#	.
*Xped	*	*
.	16dJk	.
=58	=58	=58
*	*^	*
*ped	*	*	*
4FF#	8c#L	2ryy	.
.	16r	.	.
.	16f#Jk	.	.
4c# 4F#	4a	.	.
*Xped	*	*	*
4c# 4F#	4a	[4f#	.
=59	=59	=59	=59
*ped	*	*	*
4EE	(>12aL	4f#]	.
.	12b	.	.
.	12aJ)	.	.
4B 4E	8g#L	4e	.
.	8a	.	.
[4E	8.b	[4d	.
*Xped	*	*	*
.	16f#Jk	.	.
=60	=60	=60	=60
*ped	*	*	*
(4E\] 4AA\	8eL	4d]	.
.	16r	.	.
.	(<16aJk	.	.
4A)	4cc#)	4c#	.
*Xped	*	*	*
4e 4A	4cc#^>/	4ryy	.
*	*v	*v	*
!!LO:LB:g=original
=61	=61	=61
*^	*	*
!LO:TX:b:i:B:t=legato.	!	!	!
2f# 2d#X	4A	(12cc#L	.
.	.	12ddX	.
.	.	12cc#J)	.
.	2G#	8b#XL	.
.	.	16r	.
.	.	16g#Jk	.
4e#X 4c#	.	4bn^>/	.
=62	=62	=62	=62
2en 2c#	4Gn	(>12bL	.
.	.	12cc#	.
.	.	12bJ)	.
.	2F#	8a#XL	.
.	.	16r	.
.	.	(16f#Jk	.
4d#X 4cn	.	4an)	.
=63	=63	=63	=63
2dn 2B	4Fn	(<12aL	.
.	.	12b	.
.	.	12aJ)	.
.	2E	8g#L	.
.	.	16r	.
.	.	(16eJk	.
4c#X 4B-X	.	4gn)	.
=64	=64	=64	=64
2cn 2A	4E-X	(<12gnL	.
.	.	12a	.
.	.	12gJ)	.
.	2D	(8f#XL	.
.	.	8dJ	.
4Bn 4G#X	.	4f#)	.
*v	*v	*	*
=65	=65	=65
4C# 4CC#	(<12f#L	.
.	12g#	.
.	12f#J)	.
4B 4G# 4C#	8e#XL	.
.	8f#	.
4B 4E#X 4C#	8.g#	.
.	16dJk	.
=66	=66	=66
*	*^	*
4FF#	8c#L	2ryy	.
.	16r	.	.
.	16f#Jk	.	.
4c# 4F#	4a	.	.
4c# 4F#	[4a	[4f#	.
!!LO:LB:g=original
=67	=67	=67	=67
4EE	(>12aL]	4f#]	.
.	12b	.	.
.	12aJ)	.	.
4B 4E	8g#L	4e	.
.	8a	.	.
[4E	8.b	[4d	.
.	16f#Jk	.	.
=68	=68	=68	=68
4E\] 4AA\	8eL	4d]	.
.	16r	.	.
.	16aJk	.	.
4A	4cc#	4c#	.
[4A	4cc#	4e	.
=69	=69	=69	=69
4A] 4D	(8eeL	4fn	p >
!	!	!LO:TX:b:i:B:t=ritenuto.	!
.	16ddL	.	.
.	16cc#JJ	.	]]
4A 4D	4b	4f	.
[4A 4AA	4cc#)	4e	<
=70	=70	=70	=70
4A] 4D	(8eeL	4fn	[
.	16ddL	.	.
.	16cc#JJ	.	.
4A 4D	4b	4f	.
[4A 4AA	4cc#)	4e	<
=71	=71	=71	=71
*^	*	*	*
4A]	2D	(8eeL	2f#X	[
.	.	16ddL	.	.
.	.	16cc#JJ	.	.
2G#	.	4b	.	.
.	4c# 4C#	4cc#)	4e#X	<[
=72	=72	=72	=72	=72
(>12dL	2.F#	(>12bL	2.f#	pp
12c#	.	12a	.	.
12BJ)	.	12g#J)	.	.
2A;	.	2f#;	.	.
*v	*v	*	*	*
*	*v	*v	*
==	==	==
*-	*-	*-
!!title: @{OTL}; @{OPS} @{ONM} publisher: @{PPR}
!!!RDF**kern: > = above
!!!RDF**kern: < = below
!!!RDF**dynam: < = "cres.", fontstyle= "bold-italic"
!!!RDF**dynam: > = "decres.", fontstyle= "bold-italic"
!!!ENC: Jacek Iwaszko
!!!END: 2017-08-24
!!!EED: Emilia Ziętek
!!!EST: revision finished 2018-12-05
!!!rism-genre: Mazurka
!!!rism-key: F-sharp minor
!!!rism-opus: op.  6, no. 1
!!!rism-title: Mazurka in F-sharp minor op.  6, no. 1
!!!rism-permalink: https://opac.rism.info/search?id=300605318&View=rism
!!!rism-773a-OPR: 300605317
!!!rism-parent-permalink: https://opac.rism.info/search?id=300605317&View=rism
